public/images/illustrations/composing.svg

<svg xmlns="http://www.w3.org/2000/svg" fill="none" viewBox="0 0 286 242"><rect width="282.769" height="191.415" x="1.615" y="4.901" fill="#0B0B0B" stroke="#0B0B0B" stroke-width="3" rx="14.5"/><rect width="277.52" height="189.689" x="1.615" y="1.901" fill="#fff" stroke="#0B0B0B" stroke-width="3" rx="14.5"/><path stroke="#0B0B0B" stroke-width="3" d="M.115 163.157h280.52"/><path fill="#0B0B0B" stroke="#0B0B0B" stroke-width="3" d="M108.29 192.566h69.216v41.033a6.5 6.5 0 0 1-6.5 6.5H114.79a6.5 6.5 0 0 1-6.5-6.5z"/><path fill="#fff" stroke="#0B0B0B" stroke-width="3" d="M108.291 192.566h64.168v37.211a6.5 6.5 0 0 1-6.5 6.5h-51.168a6.5 6.5 0 0 1-6.5-6.5z"/><path stroke="#0B0B0B" stroke-linecap="round" stroke-width="3" d="M185.983 35.934h36.129"/><circle cx="175.431" cy="36.208" r="5.099" fill="#FF4A60" stroke="#0B0B0B" stroke-width="3"/><rect width="58.04" height="11.086" x="170.332" y="125.017" stroke="#0B0B0B" stroke-width="3" rx="2.5"/><rect width="79.125" height="28.975" x="174.51" y="85.088" fill="#FFC224" rx="6"/><path stroke="#0B0B0B" stroke-linecap="round" stroke-width="3" d="M180.505 93.062h31.433"/><path stroke="#0B0B0B" stroke-linecap="round" stroke-linejoin="round" stroke-width="3" d="m228.307 91.431 5.478 5.478 5.478-5.478"/><rect width="78.387" height="28.303" x="170.332" y="79.628" stroke="#0B0B0B" stroke-width="3" rx="6.5"/><path stroke="#0B0B0B" stroke-linecap="round" stroke-width="3" d="M170.332 52.368h58.041M170.332 63.324h47.867"/><path stroke="#0B0B0B" stroke-width="3" d="M39.912 32.388h100.915v100.915H39.912z"/><rect width="13.591" height="13.591" x="135.052" y="24.422" fill="#1C92FF" stroke="#0B0B0B" stroke-width="3" rx="1.5"/><rect width="13.591" height="13.591" x="31.136" y="24.422" fill="#1C92FF" stroke="#0B0B0B" stroke-width="3" rx="1.5"/><rect width="13.591" height="13.591" x="31.136" y="128.337" fill="#1C92FF" stroke="#0B0B0B" stroke-width="3" rx="1.5"/><rect width="13.591" height="13.591" x="135.052" y="128.337" fill="#1C92FF" stroke="#0B0B0B" stroke-width="3" rx="1.5"/><path fill="#FFAB91" d="M74.7 62.9c-.9-.2-1.8-.3-2.8-.2v-4.2c3.2-1.5 5.9-3.4 5.9-7.1 0-3.4-2.2-5.1-4.4-5.1S69 48 69 51.4v5.2l-.6.3c-4.5 2-10.2 4.4-10.2 11.2 0 6 5.2 9.8 10.8 10.5v2.2c0 2.6-1.9 3-2.4 3-1.4.2-3.1-.6-3.5-2.4-.2-.8-1-1.3-1.8-1.1s-1.3 1-1.1 1.8c.7 3.1 3.5 4.7 6 4.7h.7c2.5-.3 5.1-2.2 5.1-6v-2.2c5.3-.4 8.8-3.8 8.8-8.6 0-3.5-2.4-6.3-6.1-7.1"/><path stroke="#18193F" stroke-linecap="round" stroke-linejoin="round" stroke-width="3" d="M72.2 73c2.5-1.1 4.3-3.2 4.3-6.5 0-7-10.9-8.3-14-2M58.5 59c-1.2 1.4-2 3.1-2 5.5 0 5.9 5.7 9.2 11 9.3"/><path stroke="#18193F" stroke-linecap="round" stroke-linejoin="round" stroke-width="3" d="M58.5 78.5c1.1 5 9 5 9-1v-30c0-5 6-5 6 0s-6.6 6.1-11.5 8.9"/><path fill="#18193F" d="M59.5 81a2.5 2.5 0 1 0 0-5 2.5 2.5 0 0 0 0 5"/><path fill="#90CAF9" d="M126.1 87H97.9c-2.1 0-3.9 1.7-3.9 3.9v23.2c0 2.1 1.7 3.9 3.9 3.9h28.2c2.1 0 3.9-1.7 3.9-3.9V90.9c0-2.2-1.7-3.9-3.9-3.9"/><path stroke="#18193F" stroke-linecap="round" stroke-linejoin="round" stroke-width="3" d="M126.5 94.9V110c0 2.2-1.8 4-4 4h-29c-2.2 0-4-1.8-4-4v-3.7M89.5 100.5v-14c0-2.2 1.8-4 4-4h29c2.2 0 4 1.8 4 4v3"/><path stroke="#18193F" stroke-linecap="round" stroke-width="3" d="M95.5 100.5v8M100.5 100.5v8M105.5 100.5v8M115.5 100.5v8M120.5 100.5v8"/><path stroke="#18193F" stroke-linecap="round" stroke-linejoin="round" stroke-width="3" d="M89.5 107.3v2.7c0 2.2 1.8 4 4 4h29c2.2 0 4-1.8 4-4v-9.5h-37"/></svg>

<svg width="286" height="242" viewBox="0 0 286 242" fill="none" xmlns="http://www.w3.org/2000/svg">
<rect x="1.61542" y="4.90131" width="282.769" height="191.415" rx="14.5" fill="#0B0B0B" stroke="#0B0B0B" stroke-width="3"/>
<rect x="1.61542" y="1.90131" width="277.52" height="189.689" rx="14.5" fill="white" stroke="#0B0B0B" stroke-width="3"/>
<line x1="0.115417" y1="163.157" x2="280.635" y2="163.157" stroke="#0B0B0B" stroke-width="3"/>
<path d="M108.29 192.566H177.506V233.599C177.506 237.189 174.596 240.099 171.006 240.099H114.79C111.2 240.099 108.29 237.189 108.29 233.599V192.566Z" fill="#0B0B0B" stroke="#0B0B0B" stroke-width="3"/>
<path d="M108.291 192.566H172.459V229.777C172.459 233.367 169.549 236.277 165.959 236.277H114.791C111.201 236.277 108.291 233.367 108.291 229.777V192.566Z" fill="white" stroke="#0B0B0B" stroke-width="3"/>
<line x1="185.983" y1="35.9343" x2="222.112" y2="35.9343" stroke="#0B0B0B" stroke-width="3" stroke-linecap="round"/>
<circle cx="175.431" cy="36.2078" r="5.09908" fill="#FF4A60" stroke="#0B0B0B" stroke-width="3"/>
<rect x="170.332" y="125.017" width="58.0403" height="11.0862" rx="2.5" stroke="#0B0B0B" stroke-width="3"/>
<rect x="174.51" y="85.0881" width="79.1247" height="28.9752" rx="6" fill="#FFC224"/>
<line x1="180.505" y1="93.0616" x2="211.938" y2="93.0616" stroke="#0B0B0B" stroke-width="3" stroke-linecap="round"/>
<path d="M228.307 91.4313L233.785 96.9093L239.263 91.4313" stroke="#0B0B0B" stroke-width="3" stroke-linecap="round" stroke-linejoin="round"/>
<rect x="170.332" y="79.6276" width="78.3871" height="28.3027" rx="6.5" stroke="#0B0B0B" stroke-width="3"/>
<line x1="170.332" y1="52.3683" x2="228.373" y2="52.3683" stroke="#0B0B0B" stroke-width="3" stroke-linecap="round"/>
<line x1="170.332" y1="63.3242" x2="218.199" y2="63.3242" stroke="#0B0B0B" stroke-width="3" stroke-linecap="round"/>
<rect x="39.9117" y="32.3878" width="100.915" height="100.915" stroke="#0B0B0B" stroke-width="3"/>
<rect x="135.052" y="24.4218" width="13.5908" height="13.5908" rx="1.5" fill="#1C92FF" stroke="#0B0B0B" stroke-width="3"/>
<rect x="31.1359" y="24.4218" width="13.5908" height="13.5908" rx="1.5" fill="#1C92FF" stroke="#0B0B0B" stroke-width="3"/>
<rect x="31.1359" y="128.337" width="13.5908" height="13.5908" rx="1.5" fill="#1C92FF" stroke="#0B0B0B" stroke-width="3"/>
<rect x="135.052" y="128.337" width="13.5908" height="13.5908" rx="1.5" fill="#1C92FF" stroke="#0B0B0B" stroke-width="3"/>
<path d="M74.7 62.9C73.8 62.7 72.9 62.6 71.9 62.7V58.5C75.1 57 77.8 55.1 77.8 51.4C77.8 48 75.6 46.3 73.4 46.3C71.2 46.3 69 48 69 51.4V56.6C68.8 56.7 68.6 56.8 68.4 56.9C63.9 58.9 58.2 61.3 58.2 68.1C58.2 74.1 63.4 77.9 69 78.6V80.8C69 83.4 67.1 83.8 66.6 83.8C65.2 84 63.5 83.2 63.1 81.4C62.9 80.6 62.1 80.1 61.3 80.3C60.5 80.5 60 81.3 60.2 82.1C60.9 85.2 63.7 86.8 66.2 86.8C66.4 86.8 66.6 86.8 66.9 86.8C69.4 86.5 72 84.6 72 80.8V78.6C77.3 78.2 80.8 74.8 80.8 70C80.8 66.5 78.4 63.7 74.7 62.9Z" fill="#FFAB91"/>
<path d="M72.2 73C74.7 71.9 76.5 69.8 76.5 66.5C76.5 59.5 65.6 58.2 62.5 64.5" stroke="#18193F" stroke-width="3" stroke-linecap="round" stroke-linejoin="round"/>
<path d="M58.5 59C57.3 60.4 56.5 62.1 56.5 64.5C56.5 70.4 62.2 73.7 67.5 73.8" stroke="#18193F" stroke-width="3" stroke-linecap="round" stroke-linejoin="round"/>
<path d="M58.5 78.5C59.6 83.5 67.5 83.5 67.5 77.5V47.5C67.5 42.5 73.5 42.5 73.5 47.5C73.5 52.5 66.9 53.6 62 56.4" stroke="#18193F" stroke-width="3" stroke-linecap="round" stroke-linejoin="round"/>
<path d="M59.5 81C60.8807 81 62 79.8807 62 78.5C62 77.1193 60.8807 76 59.5 76C58.1193 76 57 77.1193 57 78.5C57 79.8807 58.1193 81 59.5 81Z" fill="#18193F"/>
<path d="M126.1 87H97.9C95.8 87 94 88.7 94 90.9V114.1C94 116.2 95.7 118 97.9 118H126.1C128.2 118 130 116.3 130 114.1V90.9C130 88.7 128.3 87 126.1 87Z" fill="#90CAF9"/>
<path d="M126.5 94.9V110C126.5 112.2 124.7 114 122.5 114H93.5C91.3 114 89.5 112.2 89.5 110V106.3" stroke="#18193F" stroke-width="3" stroke-linecap="round" stroke-linejoin="round"/>
<path d="M89.5 100.5V86.5C89.5 84.3 91.3 82.5 93.5 82.5H122.5C124.7 82.5 126.5 84.3 126.5 86.5V89.5" stroke="#18193F" stroke-width="3" stroke-linecap="round" stroke-linejoin="round"/>
<path d="M95.5 100.5V108.5" stroke="#18193F" stroke-width="3" stroke-linecap="round"/>
<path d="M100.5 100.5V108.5" stroke="#18193F" stroke-width="3" stroke-linecap="round"/>
<path d="M105.5 100.5V108.5" stroke="#18193F" stroke-width="3" stroke-linecap="round"/>
<path d="M115.5 100.5V108.5" stroke="#18193F" stroke-width="3" stroke-linecap="round"/>
<path d="M120.5 100.5V108.5" stroke="#18193F" stroke-width="3" stroke-linecap="round"/>
<path d="M89.5 107.3V110C89.5 112.2 91.3 114 93.5 114H122.5C124.7 114 126.5 112.2 126.5 110V100.5H89.5" stroke="#18193F" stroke-width="3" stroke-linecap="round" stroke-linejoin="round"/>
</svg>
